T: Wizard's Waltz, The
M: 6/8
L: 1/8
K: Emin
|: e4 d2 | c2 (2BcB A2 | G3 A F2 | E4 B2 | e2 ed ef | g2 (3fgf e2 | g3 a f2 | e4 e2 | ~
</html>
</html>
